virus.svg

<svg height="448pt" viewBox="0 0 448 448" width="448pt" xmlns="http://www.w3.org/2000/svg"><path d="m156.945312 248h134.109376l-67.054688-134.113281zm75.054688-16h-16v-16h16zm0-32h-16v-48h16zm0 0"/><path d="m175.0625 368-6 48h109.875l-6-48zm0 0"/><path d="m448 64h-448v224h448zm-137.191406 196.207031c-1.460938 2.359375-4.035156 3.792969-6.808594 3.792969h-160c-2.773438 0-5.347656-1.433594-6.808594-3.792969-1.457031-2.355469-1.589844-5.300781-.351562-7.78125l80-160c1.503906-2.523437 4.222656-4.070312 7.160156-4.070312s5.65625 1.546875 7.160156 4.070312l80 160c1.238282 2.480469 1.105469 5.425781-.351562 7.78125zm0 0"/><path d="m448 24c0-13.253906-10.746094-24-24-24h-400c-13.253906 0-24 10.746094-24 24v24h448zm-400 8h-16v-16h16zm32 0h-16v-16h16zm32 0h-16v-16h16zm0 0"/><path d="m448 304h-448v24c0 13.253906 10.746094 24 24 24h400c13.253906 0 24-10.746094 24-24zm-32 32h-16v-16h16zm0 0"/><path d="m128 440c0 4.417969 3.582031 8 8 8h176c4.417969 0 8-3.582031 8-8s-3.582031-8-8-8h-176c-4.417969 0-8 3.582031-8 8zm0 0"/></svg>

<?xml version="1.0" encoding="utf-8"?>
<!-- Generator: Adobe Illustrator 23.1.0, SVG Export Plug-In . SVG Version: 6.00 Build 0)  -->
<svg version="1.1" id="Calque_1" xmlns="http://www.w3.org/2000/svg" xmlns:xlink="http://www.w3.org/1999/xlink" x="0px" y="0px"
	 viewBox="0 0 448 448" style="enable-background:new 0 0 448 448;" xml:space="preserve">
<style type="text/css">
	.st0{fill:#593459;}
</style>
<path class="st0" d="M156.9,248h134.1L224,113.9L156.9,248z M232,232h-16v-16h16V232z M232,200h-16v-48h16V200z"/>
<path class="st0" d="M175.1,368l-6,48h109.9l-6-48H175.1z"/>
<path class="st0" d="M448,64H0v224h448V64z M310.8,260.2c-1.5,2.4-4,3.8-6.8,3.8H144c-2.8,0-5.3-1.4-6.8-3.8
	c-1.5-2.4-1.6-5.3-0.4-7.8l80-160c1.5-2.5,4.2-4.1,7.2-4.1s5.7,1.5,7.2,4.1l80,160C312.4,254.9,312.3,257.9,310.8,260.2z"/>
<path class="st0" d="M448,24c0-13.3-10.7-24-24-24H24C10.7,0,0,10.7,0,24v24h448V24z M48,32H32V16h16V32z M80,32H64V16h16V32z
	 M112,32H96V16h16V32z"/>
<path class="st0" d="M448,304H0v24c0,13.3,10.7,24,24,24h400c13.3,0,24-10.7,24-24V304z M416,336h-16v-16h16V336z"/>
<path class="st0" d="M128,440c0,4.4,3.6,8,8,8h176c4.4,0,8-3.6,8-8s-3.6-8-8-8H136C131.6,432,128,435.6,128,440z"/>
</svg>
